X: 1
T: the Phoenix
C: Dave Hennessy
R: reel
Z: 2010 John Chambers <jc:trillian.mit.edu>
M: C|
L: 1/8
K: D
de |\
"D"f2df "A"edcA | "G"BAGB  "D"AGFd | "D"fddf "A"edcA | "G"BAGB "A"A2ag |
"D"f2df "A"edcA | "G"BAGB "A7"AGFE | "D"DEFG    ABdf | "A"edce "D"d2  :|
|: cd |\
"Bm"B3B  Bcde | f2df "A"edcd | "Bm"B3B Bcde | f2df "A"edcd |
"Bm"B2Fd B2Fd | BFBd "A"cBAc | "Bm(G)"B3B Bcde |[1 "A"fedc "Bm"B2 :|2 "A7"fedc "D"d2 |]
